(Projekt fraeseplanen)
(Erstellt mit Estlcam Version 8 Build 8,212)
(Laufzeit ca. 00:09:12 Stunden)

(Benoetigte Werkzeuge:)
(Schrub 2,0mm)

G90
G91.1
M03 S24000
G00 Z5.0000


(Nr. 1: Bohrung 1)
G00 X0.0000 Y0.0000
G00 Z0.5000
G01 Z-2.0000 F600 S24000
G00 Z5.0000


(Nr. 2: Tasche raeumen: Ausschnitt 1)
G00 X168.8000 Y2.8000 Z5.0000
G00 Z0.5000
G01 Z-1.0000 F600
G01 X1.2000 F1200
G01 Y4.6000
G01 X168.8000
G01 Y6.4000
G01 X1.2000
G01 Y8.2000
G01 X168.8000
G01 Y10.0000
G01 X1.2000
G01 Y11.8000
G01 X168.8000
G01 Y13.6000
G01 X1.2000
G01 Y15.4000
G01 X168.8000
G01 Y17.2000
G01 X1.2000
G01 Y19.0000
G01 X168.8000
G01 Y20.8000
G01 X1.2000
G01 Y22.6000
G01 X168.8000
G01 Y24.4000
G01 X1.2000
G01 Y26.2000
G01 X168.8000
G01 Y28.0000
G01 X1.2000
G01 Y29.8000
G01 X168.8000
G01 Y31.6000
G01 X1.2000
G01 Y33.4000
G01 X168.8000
G01 Y35.2000
G01 X1.2000
G01 Y37.0000
G01 X168.8000
G01 Y38.8000
G01 X1.2000
G01 Y40.6000
G01 X168.8000
G01 Y42.4000
G01 X1.2000
G01 Y44.2000
G01 X168.8000
G01 Y46.0000
G01 X1.2000
G01 Y47.8000
G01 X168.8000
G01 Y49.6000
G01 X1.2000
G01 Y51.4000
G01 X168.8000
G01 Y53.2000
G01 X1.2000
G01 Y55.0000
G01 X168.8000
G01 Y56.8000
G01 X1.2000
G01 Y58.6000
G01 X168.8000
G01 Y60.4000
G01 X1.2000
G01 Y62.2000
G01 X168.8000
G01 Y64.0000
G01 X1.2000
G01 Y65.8000
G01 X168.8000
G01 Y67.6000
G01 X1.2000
G01 Y69.4000
G01 X168.8000
G01 Y71.2000
G01 X1.2000
G01 Y73.0000
G01 X168.8000
G01 Y74.8000
G01 X1.2000
G01 Y76.6000
G01 X168.8000
G01 Y78.4000
G01 X1.2000
G01 Y80.2000
G01 X168.8000
G01 Y82.0000
G01 X1.2000
G01 Y83.8000
G01 X168.8000
G01 Y85.6000
G01 X1.2000
G01 Y87.4000
G01 X168.8000
G01 Y89.2000
G01 X1.2000
G01 Y91.0000
G01 X168.8000
G01 Y92.8000
G01 X1.2000
G01 Y94.6000
G01 X168.8000
G01 Y96.4000
G01 X1.2000
G01 Y98.2000
G01 X168.8000
G01 Y100.0000
G01 X1.2000
G01 Y101.8000
G01 X168.8000
G01 Y103.6000
G01 X1.2000
G01 Y105.4000
G01 X168.8000
G01 Y107.2000
G01 X1.2000
G00 Z5.0000


(Nr. 3: Tasche Seitenwand: Ausschnitt 1)
G00 X1.0000 Y1.0000 Z5.0000
G00 Z0.5000
G01 Z-1.0000 F600
G01 X0.7071 Y0.7071 F1200
G01 X1.0000 Y1.0000
G01 Y109.0000
G01 X0.7071 Y109.2929
G01 X1.0000 Y109.0000
G01 X169.0000
G01 X169.2929 Y109.2929
G01 X169.0000 Y109.0000
G01 Y1.0000
G01 X169.2929 Y0.7071
G01 X169.0000 Y1.0000
G01 X1.0000
G00 Z5.0000
G00 X0.0000 Y0.0000

M05
M30
